X: 2297
T: IRISH REEL
%R: reel
B: James Kerr "Merry Melodies" v.2 p.32 #297
Z: 2016 John Chambers <jc:trillian.mit.edu>
M: C
L: 1/8
K: Em
e2 |\
G2GA BEE2 | BEdE BEEF |\
G2(GA) BABd | egfd e2 ::\
(ef) |\
(3gag (3fgf edBc | d2ed Bdd2 |\
[1 (3gag (3fgf edBd | egfd e2 :|\
[2 bgaf gfed | egfd e2 |]
